X:84
T:Untitled 2/4 tune in D
S:John Moore's Book 2
Z:Transcribed by Edmund Spriggs 05/2021
%%VWML: Moore1-4494-p65-0
F:http://www.vwml.org/record/Moore2/4494/p65
M:2/4
L:1/8
K:D
f2(f/g/f/e/)|(d/c/d/e/) dA|dAeA|(f/e/f/g/) (a/g/f/e/)|
f2(f/g/f/e/)|(d/c/d/e/) dA|df/a/ (a/g/)(g/f/)|(f2e2):|
|:A>B (c/d/).e/.f/|(e/d/).c/.B/ (AB/c/)|df/a/ (b/g/)(g/f/)|(f2e2)|
a2a/b/a/g/|f/e/f/g/ ad/f/|{b}gedc|c2d2:|

